assets/img/discord.svg

<svg width="25" height="21" viewBox="0 0 25 21" fill="none" xmlns="http://www.w3.org/2000/svg">
<path d="M22.7861 9.04256C21.8482 5.74455 20.7799 4.04048 20.7627 4.00991C20.7017 3.93459 19.189 2.104 15.5271 0.75L15.0353 2.0764C16.7774 2.72057 18.0116 3.50643 18.6899 4.01419C16.6599 3.40408 14.2431 3.03041 12.1008 3.03041C9.95851 3.03041 7.53775 3.40408 5.50128 4.01419C6.18496 3.50648 7.42744 2.72057 9.17631 2.0764L8.69846 0.75C5.02238 2.104 3.49044 3.93459 3.42863 4.00991C3.41108 4.04048 2.32479 5.74455 1.35221 9.04256C0.414855 12.2208 0.0415214 16.7045 0.027872 16.8843C0.109225 17.0131 1.97891 20.25 7.12077 20.25L8.43406 18.3536C6.97595 17.964 5.58693 17.3357 4.31689 16.4832L5.10228 15.3069C7.15122 16.6822 9.54509 17.4092 12.0251 17.4092C14.5051 17.4092 16.9067 16.6822 18.9701 15.3069L19.7431 16.4832C18.4641 17.3357 17.0684 17.964 15.6062 18.3536L16.8995 20.25C22.0414 20.25 23.9452 17.0131 24.0279 16.8843C24.0161 16.7045 23.69 12.2208 22.7861 9.04256ZM8.79853 12.7392H7.39228L7.40468 10.3841H8.81093L8.79853 12.7392ZM16.7071 12.7392H15.3008L15.3132 10.3841H16.7195L16.7071 12.7392Z" fill="#151512"/>
</svg>

<svg width="25" height="21" fill="none" xmlns="http://www.w3.org/2000/svg"><path d="M22.786 9.043c-.938-3.298-2.006-5.003-2.023-5.033-.061-.075-1.574-1.906-5.236-3.26l-.492 1.326c1.742.645 2.977 1.43 3.655 1.938-2.03-.61-4.447-.984-6.59-.984-2.141 0-4.562.374-6.599.984.684-.508 1.926-1.293 3.675-1.938L8.698.75C5.022 2.104 3.49 3.935 3.428 4.01c-.017.03-1.103 1.735-2.076 5.033C.415 12.22.042 16.705.028 16.884c.081.13 1.95 3.366 7.093 3.366l1.313-1.896a13.747 13.747 0 01-4.117-1.87l.785-1.177a12.377 12.377 0 006.923 2.102c2.48 0 4.882-.727 6.945-2.102l.773 1.176a13.91 13.91 0 01-4.137 1.87L16.9 20.25c5.142 0 7.046-3.237 7.129-3.366-.012-.18-.338-4.663-1.242-7.841zM8.8 12.739H7.392l.013-2.355H8.81l-.012 2.355zm7.908 0h-1.406l.012-2.355h1.406l-.012 2.355z" fill="#151512"/></svg>
